toolkits/global/packages/global-context/img/icons/social-twitter.svg

<svg height="24" viewBox="0 0 24 24" width="24" xmlns="http://www.w3.org/2000/svg"><path d="m18.8767135 6.87445248c.7638174-.46908424 1.351611-1.21167363 1.6250764-2.09636345-.7135248.43394112-1.50406.74870123-2.3464594.91677702-.6695189-.73342162-1.6297913-1.19486605-2.6922204-1.19486605-2.0399895 0-3.6933555 1.69603749-3.6933555 3.78628909 0 .29642457.0314329.58673729.0942985.8617704-3.06469922-.15890802-5.78835241-1.66547825-7.60988389-3.9574208-.3174714.56076194-.49978171 1.21167363-.49978171 1.90536824 0 1.31404706.65223085 2.47224203 1.64236444 3.15218497-.60350999-.0198635-1.17401554-.1925232-1.67222562-.47366811v.04583885c0 1.83355406 1.27302891 3.36609966 2.96411421 3.71294696-.31118484.0886217-.63651445.1329326-.97441718.1329326-.2357461 0-.47149219-.0229194-.69466516-.0672303.47149219 1.5065703 1.83253297 2.6036468 3.44975116 2.632678-1.2651707 1.0160946-2.85724264 1.6196394-4.5891906 1.6196394-.29861172 0-.59093688-.0152796-.88011875-.0504227 1.63450624 1.0726291 3.57548241 1.6990934 5.66104951 1.6990934 6.79263079 0 10.50641749-5.7711113 10.50641749-10.7751859l-.0094298-.48894775c.7229547-.53478659 1.3516109-1.20250585 1.8419628-1.96190282-.6632323.30100846-1.3751855.50422736-2.1217148.59590507z" fill="#666" fill-rule="evenodd"/></svg>

<?xml version="1.0" encoding="UTF-8"?>
<svg width="24px" height="24px" viewBox="0 0 24 24" version="1.1" xmlns="http://www.w3.org/2000/svg" xmlns:xlink="http://www.w3.org/1999/xlink">
    <!-- Generator: Sketch 63.1 (92452) - https://sketch.com -->
    <title>icon-icon-social-twitter</title>
    <desc>Created with Sketch.</desc>
    <defs>
        <path d="M18.8767135,6.87445248 C19.6405309,6.40536824 20.2283245,5.66277885 20.5017899,4.77808903 C19.7882651,5.21203015 18.9977299,5.52679026 18.1553305,5.69486605 C17.4858116,4.96144443 16.5255392,4.5 15.4631101,4.5 C13.4231206,4.5 11.7697546,6.19603749 11.7697546,8.28628909 C11.7697546,8.58271366 11.8011875,8.87302638 11.8640531,9.14805949 C8.79935388,8.98915147 6.07570069,7.48258124 4.25416921,5.19063869 C3.93669781,5.75140063 3.7543875,6.40231232 3.7543875,7.09600693 C3.7543875,8.41005399 4.40661835,9.56824896 5.39675194,10.2481919 C4.79324195,10.2283284 4.2227364,10.0556687 3.72452632,9.77452379 L3.72452632,9.82036264 C3.72452632,11.6539167 4.99755523,13.1864623 6.68864053,13.5333096 C6.37745569,13.6219313 6.05212608,13.6662422 5.71422335,13.6662422 C5.47847725,13.6662422 5.24273116,13.6433228 5.01955819,13.5990119 C5.49105038,15.1055822 6.85209116,16.2026587 8.46930935,16.2316899 C7.20413865,17.2477845 5.61206671,17.8513293 3.88011875,17.8513293 C3.58150703,17.8513293 3.28918187,17.8360497 3,17.8009066 C4.63450624,18.8735357 6.57548241,19.5 8.66104951,19.5 C15.4536803,19.5 19.167467,13.7288887 19.167467,8.7248141 L19.1580372,8.23586635 C19.8809919,7.70107976 20.5096481,7.0333605 21,6.27396353 C20.3367677,6.57497199 19.6248145,6.77819089 18.8782852,6.8698686 L18.8767135,6.87445248 Z" id="path-1"></path>
    </defs>
    <g id="icon-social-twitter" stroke="none" stroke-width="1" fill="none" fill-rule="evenodd">
        <mask id="mask-2" fill="white">
            <use xlink:href="#path-1"></use>
        </mask>
        <use id="social-twitter" fill="#666666" xlink:href="#path-1"></use>
    </g>
</svg>
